!!!COM: Kittel, Johann Christian
!!!CDT: 1732/02/18-1809/04/17
!!!OPR: 24 Choräle mit acht verschiedenen Bässen
!!!ONM: 4
!!!OTL@@DE: Herr Jesu Christ, dich zu uns
**kern	**fb	**kern	**fb	**kern	**fb	**kern	**fb	**kern	**fb	**kern	**fb	**kern	**fb	**kern	**fb	**kern
*	*slash	*	*slash	*	*slash	*	*slash	*	*slash	*	*slash	*	*slash	*	*slash	*
*	*above	*	*above	*	*above	*	*above	*	*above	*	*above	*	*above	*	*above	*
*I"8	*	*I"7	*	*I"6	*	*I"5	*	*I"4	*	*I"3	*	*I"2	*	*I"1	*	*I"c.f.
*I'8	*	*I'7	*	*I'6	*	*I'5	*	*I'4	*	*I'3	*	*I'1	*	*I'1	*	*I'c.f.
*clefF4	*	*clefF4	*	*clefF4	*	*clefF4	*	*clefF4	*	*clefF4	*	*clefF4	*	*clefF4	*	*clefG2
*k[f#]	*	*k[f#]	*	*k[f#]	*	*k[f#]	*	*k[f#]	*	*k[f#]	*	*k[f#]	*	*k[f#]	*	*k[f#]
*M4/4	*	*M4/4	*	*M4/4	*	*M4/4	*	*M4/4	*	*M4/4	*	*M4/4	*	*M4/4	*	*M4/4
*met(c)	*	*met(c)	*	*met(c)	*	*met(c)	*	*met(c)	*	*met(c)	*	*met(c)	*	*met(c)	*	*met(c)
*MM180	*	*MM180	*	*MM180	*	*MM180	*	*MM180	*	*MM180	*	*MM180	*	*MM180	*	*MM180
=1	=1	=1	=1	=1	=1	=1	=1	=1	=1	=1	=1	=1	=1	=1	=1	=1
*G:	*	*G:	*	*G:	*	*G:	*	*G:	*	*G:	*	*G:	*	*G:	*	*G:
2r	.	2r	.	2r	.	2r	.	2r	.	2r	.	2r	.	2r	.	2r
2GG	.	1r	.	2GG	.	2GG	.	2G	.	2GG	.	2G	.	2GG	.	2g
=2.	=2.	=2.	=2.	=2.	=2.	=2.	=2.	=2.	=2.	=2.	=2.	=2.	=2.	=2.	=2.	=2.
!	!	!	!	!	!	!	!	!	!	!	!	!	!	!	!	!LO:N:vis=2
2G	.	.	.	2G	.	2E	5_ 3_	2E	5	2G	.	2E	5	2G	.	4b
.	.	.	.	.	.	.	6 X	.	6	.	.	.	6	.	.	4ccN/
!	!	!	!	!	!	!	!	!	!	!	!	!	!	!	!	!LO:N:vis=2
2F#	6	2GG	.	(4BB	6	(4BB	6	2F#	6	2F#	6	2F#	6	2F#	6	4dd
.	.	.	.	4C)	.	4C)	.	.	5	.	.	.	5	.	.	4ccN/
=3.	=3.	=3.	=3.	=3.	=3.	=3.	=3.	=3.	=3.	=3.	=3.	=3.	=3.	=3.	=3.	=3.
2G	.	2BB	6	2D	6 4	2D	6_ 4_	2G	.	2G	.	2G	.	2G	.	2b
2F#	6 5	2D	5 3	2C	4 2	(4E	X X	1D	3	2C	4 2	2D	.	2D	.	2a
.	.	.	.	.	.	4F#)	6	.	.	.	.	.	.	.	.	.
=4.	=4.	=4.	=4.	=4.	=4.	=4.	=4.	=4.	=4.	=4.	=4.	=4.	=4.	=4.	=4.	=4.
*	*	*	*	*	*	*D:	*	*b:	*	*	*	*D:	*	*D:	*	*
2G	.	2BB	6	2BB	6	(4G	.	.	6 #4|	2BB	6	2G	9 7	(4G	.	2b
.	.	.	.	.	.	4F#)	.	.	.	.	.	.	.	4F#)	.	.
*d:	*	*D:	*	*D:	*	*	*	*	*	*D:	*	*	*	*	*	*
2E	#6|	2AA	# 8	2BB-	4 #2|	2E	#6|	2C#	#6|	(4AA	#	2A	# 7	2E	#6|	2cc#
.	.	.	X 7	.	.	.	.	.	.	4GG)	.	.	.	.	.	.
=5.	=5.	=5.	=5.	=5.	=5.	=5.	=5.	=5.	=5.	=5.	=5.	=5.	=5.	=5.	=5.	=5.
1FnX;	6	1D;	.	(4AA	6 4	1D;	4	1BB;	.	1FF#;	6	1D;	.	1D;	4	1dd;
.	.	.	.	4GG)	5 3	.	.	.	.	.	.	.	.	.	.	.
.	.	.	.	2D;	6 4	.	3	.	.	.	.	.	.	.	3	.
.	.	.	.	.	5 3	.	.	.	.	.	.	.	.	.	.	.
=6	=6	=6	=6	=6	=6	=6	=6	=6	=6	=6	=6	=6	=6	=6	=6	=6
2r	.	2r	.	2r	.	2r	.	2r	.	2r	.	2r	.	2r	.	2r
*	*	*G:	*	*G:	*	*G:	*	*G:	*	*	*	*G:	*	*G:	*	*
2C#	6 5	1r	.	2C	.	2C	.	(4AA	n	2C#	6 5	2C	.	2C	.	2ee
.	.	.	.	.	.	.	.	4GG)	.	.	.	.	.	.	.	.
=7.	=7.	=7.	=7.	=7.	=7.	=7.	=7.	=7.	=7.	=7.	=7.	=7.	=7.	=7.	=7.	=7.
!	!	!	!	!	!	!	!	!	!	!	!	!	!	!	!	!LO:N:vis=2
1D	8 3_	.	.	2FF#	6	2D	8	2FF#	6	2D	8	2D	.	2FF#	6	4dd
.	7 x_	.	.	.	5	.	7	.	5	.	7	.	.	.	.	4ccN
.	6 4	2E	.	2GG	9	2E	5 3	2GG	9	2E	.	(4E	.	2GG	.	2b
.	.	.	.	.	8	.	.	.	8	.	.	4D)	.	.	.	.
=8.	=8.	=8.	=8.	=8.	=8.	=8.	=8.	=8.	=8.	=8.	=8.	=8.	=8.	=8.	=8.	=8.
*G:	*	*	*	*	*	*	*	*	*	*G:	*	*	*	*	*	*
2D#	5 n7	2C	6	2D	4	2F#	6 5	2AA	7	2AA	5	2C	6	2AA	6	2a
.	.	.	.	.	3	.	.	.	6	.	6	.	4 2	.	.	.
2E	.	2C#	7-	2E	9	2G	.	(4BB	6_	(4BB	6	2BB	6	2BB	6	2g
.	.	.	.	.	8	.	.	4GG)	X	4C)	.	.	.	.	.	.
=9.	=9.	=9.	=9.	=9.	=9.	=9.	=9.	=9.	=9.	=9.	=9.	=9.	=9.	=9.	=9.	=9.
2CnX	6 5	2D	4_ 5	(4C	6 5	2C	6 5	(4C	6_ 5_	2D	4_ 5	1AA	7	2C	6 5	2g
.	.	.	X 6	4AA)	.	.	.	4AA)	X X	.	X 6	.	.	.	.	.
2DnX	8	2DD	3 7	2D	8	2D	8	(4D	8	2DD	3 7	.	6	2D	8	2f#
.	7	.	.	.	7	.	7	4DD)	7	.	.	.	.	.	7	.
=10.	=10.	=10.	=10.	=10.	=10.	=10.	=10.	=10.	=10.	=10.	=10.	=10.	=10.	=10.	=10.	=10.
1GG;	8 3	1GG;	.	1GG;	8 3	1GG;	8 3	1GG;	.	1GG;	5 3	1GG;	.	1GG;	8 3	1g;
=11	=11	=11	=11	=11	=11	=11	=11	=11	=11	=11	=11	=11	=11	=11	=11	=11
2r	.	2r	.	2r	.	2r	.	2r	.	2r	.	2r	.	2r	.	2r
2FF#	6	1r	.	2FF#	6	2.D	5 3	2D	.	2D	.	2FF#	6	2D	.	2a
=12.	=12.	=12.	=12.	=12.	=12.	=12.	=12.	=12.	=12.	=12.	=12.	=12.	=12.	=12.	=12.	=12.
2GG	.	.	.	2GG	9	.	6_ 4_	2G	.	2GG	.	2GG	.	2G	.	2b
.	.	.	.	.	.	4GG	X X	.	.	.	.	.	.	.	.	.
[2G	6	2D	6 4	[2G	6	(4G	.	(4E	.	[2G	6	[2G	6	2GG	.	2b
.	5	.	.	.	5	8AL	.	4D)	.	.	5	.	5	.	.	.
.	.	.	.	.	.	8GJ)	.	.	.	.	.	.	.	.	.	.
=13.	=13.	=13.	=13.	=13.	=13.	=13.	=13.	=13.	=13.	=13.	=13.	=13.	=13.	=13.	=13.	=13.
*	*	*D:	*	*D:	*	*	*	*D:	*	*d:	*	*D:	*	*D:	*	*
(4G]	#4|_ 2	2E	#6| 4 3	2G]	#4| 2	(4F#	6	2C#	6	2G]	#4| 2	2G]	#4| 2	2D	.	2a
8F#L	X	.	.	.	.	4D)	.	.	.	.	.	.	.	.	.	.
8EJ)	.	.	.	.	.	.	.	.	.	.	.	.	.	.	.	.
*	*	*	*	*	*	*D:	*	*	*	*	*	*	*	*	*	*
(4F#	6	2D	8 3	(4F#	6	(4B	5 3	2BB	.	2FnX	6	2F#	6	2BB	.	2dd
4D)	.	.	.	4G)	.	4A)	.	.	.	.	.	.	.	.	.	.
=14.	=14.	=14.	=14.	=14.	=14.	=14.	=14.	=14.	=14.	=14.	=14.	=14.	=14.	=14.	=14.	=14.
*d:	*	*	*	*	*	*	*	*	*	*	*	*	*	*	*	*
2B-	7	2G	6 5	2A	4_ 5	(4G	6 5	2BB-	#6|	2B-	7	2E	7	2GG	6 5	2dd
.	#6|	.	.	.	X 6	4E)	.	.	.	.	#6|	.	.	.	.	.
(4A	#_	2A	# 8	2AA	# 7	2A	# 8	2AA	# 8	(4A	#_	2A	7 #	2AA	#_ 8	2cc#
4G)	X	.	X 7	.	.	.	X 7	.	X n7	4G)	X	.	.	.	X 7	.
=15.	=15.	=15.	=15.	=15.	=15.	=15.	=15.	=15.	=15.	=15.	=15.	=15.	=15.	=15.	=15.	=15.
1F#;	6	1D;	8 3	1D;	4	1D;	8 3	1DD;	8 3	1F#X	6	1D;	.	1D;	8 3	1dd;
.	.	.	.	.	3	.	.	.	.	.	.	.	.	.	.	.
=16	=16	=16	=16	=16	=16	=16	=16	=16	=16	=16	=16	=16	=16	=16	=16	=16
2r	.	2r	.	2r	.	2r	.	2r	.	2r	.	2r	.	2r	.	2r
*G:	*	*G:	*	*a:	*	*G:	*	*a:	*	*C:	*	*G:	*	*G:	*	*
(4G	.	2r	.	2FnX	#6| 4 3	2G	.	2GG#	6 5	2FnX	4 2	2GG	.	2G	.	2b
4FnX)	.	.	.	.	.	.	.	.	.	.	.	.	.	.	.	.
=17.	=17.	=17.	=17.	=17.	=17.	=17.	=17.	=17.	=17.	=17.	=17.	=17.	=17.	=17.	=17.	=17.
4E	6_	2r	.	2E	6 4	2F#	7- 5	2AA	5	2E	6	2AA	7	2E	6	2ccnX
4E-	X	.	.	.	.	.	.	.	6	.	.	.	6	.	.	.
*	*	*	*	*	*	*	*	*G:	*	*G:	*	*	*	*	*	*
4D	6_ 4_	2BB	6	2D	#4| n	2G	3 5	(4BB	6	2BB	6	2BB	6	(4BB	6	2b
4C#	X X	.	.	.	.	.	.	4C)	.	.	.	.	.	4C)	.	.
=18.	=18.	=18.	=18.	=18.	=18.	=18.	=18.	=18.	=18.	=18.	=18.	=18.	=18.	=18.	=18.	=18.
4D	5_ 3_	2C	6 X	2C	6	2D#	7n 5	2D	4 8	2C	6 3	2C	6	2D	.	2a
4CnX	X X	.	4 #2|	.	4 2	.	.	.	3 7	.	4 2	.	.	.	.	.
*	*	*	*	*G:	*	*	*	*	*	*	*	*	*	*	*	*
4BB	6_	2BB	6	2BB	6	2E	3 5	(4E	.	(4BB	6	2C#	7-	2E	.	2g
4BB-	X	.	.	.	.	.	.	4D)	.	4GG)	.	.	.	.	.	.
=19.	=19.	=19.	=19.	=19.	=19.	=19.	=19.	=19.	=19.	=19.	=19.	=19.	=19.	=19.	=19.	=19.
(4AA	7_	2AA	7	1AA	7	2C	6 5	(4C	6 5	2D	4 8	2D	4_ 5	2C	8	2g
8BBnXL	X	.	.	.	.	.	.	4AA)	.	.	.	.	X 6	.	7	.
8CJ)	.	.	.	.	.	.	.	.	.	.	.	.	.	.	.	.
4D	7_	2D	7	.	6	2DnX	8	2D	8	2DD	3 7	2DD	3 7	2D	8	2f#
4DD	X	.	.	.	.	.	7	.	7	.	.	.	.	.	7	.
=20.	=20.	=20.	=20.	=20.	=20.	=20.	=20.	=20.	=20.	=20.	=20.	=20.	=20.	=20.	=20.	=20.
1GG;	.	1GG;	.	1GG;	.	1GG;	8 3	1GG;	8 3	1GG;	.	1GG;	.	1GG;	8 3	1g;
==	==	==	==	==	==	==	==	==	==	==	==	==	==	==	==	==
*-	*-	*-	*-	*-	*-	*-	*-	*-	*-	*-	*-	*-	*-	*-	*-	*-
!!!RDF**kern: N = cue size
!!!AGN: chorale
!!!EED: Wolfgang Drescher
!!!END: 2023/05/09
!!!ENC: Wolfgang Drescher
!!!END: 2023/05/09
!!!title: @{ONM}. @{OTL@@DE}